assets/images/logos/whisp-logo-horizontal.svg

<?xml version="1.0" encoding="UTF-8"?><svg id="Layer_2" xmlns="http://www.w3.org/2000/svg" viewBox="0 0 223.994 78.0709"><g id="Components"><g id="_52258e0f-d8a6-46fa-8aef-f794c37473fe_10"><path d="M211.31,54.395c1.561,0,2.829-.569,3.805-1.707.975-1.138,1.463-2.911,1.463-5.318,0-2.374-.488-4.122-1.463-5.244-.976-1.122-2.244-1.683-3.805-1.683-1.594,0-2.879.561-3.854,1.683-.976,1.122-1.464,2.87-1.464,5.244,0,2.407.488,4.18,1.464,5.318.975,1.138,2.26,1.707,3.854,1.707ZM202.431,68.592c-2.472,0-3.708-1.252-3.708-3.757v-26.1c0-2.471,1.203-3.707,3.61-3.707,2.439,0,3.659,1.236,3.659,3.707v.147c.683-1.204,1.691-2.163,3.025-2.878,1.333-.716,2.829-1.074,4.488-1.074,2.081,0,3.911.504,5.488,1.513,1.578,1.008,2.805,2.439,3.683,4.293.879,1.854,1.318,4.065,1.318,6.634s-.439,4.79-1.318,6.66c-.878,1.87-2.105,3.317-3.683,4.341-1.577,1.025-3.407,1.537-5.488,1.537-1.594,0-3.049-.341-4.366-1.024-1.318-.683-2.334-1.594-3.049-2.732v8.683c0,2.505-1.22,3.757-3.659,3.757ZM183.892,59.908c-1.431,0-2.902-.13-4.415-.39-1.512-.26-2.886-.699-4.122-1.317-.813-.423-1.342-.96-1.586-1.61-.243-.651-.252-1.285-.024-1.903s.634-1.081,1.22-1.39c.585-.309,1.268-.301,2.049.024,1.333.553,2.561.943,3.683,1.171,1.122.228,2.203.342,3.244.342,1.366,0,2.374-.22,3.025-.659.65-.439.975-1.016.975-1.732,0-1.138-.829-1.854-2.488-2.146l-5.122-.927c-2.049-.358-3.61-1.09-4.683-2.196-1.074-1.105-1.61-2.553-1.61-4.342,0-1.626.455-3.024,1.366-4.195.91-1.171,2.163-2.082,3.756-2.732,1.594-.651,3.431-.976,5.513-.976,2.862,0,5.399.553,7.61,1.659.748.358,1.212.862,1.391,1.512.179.651.138,1.285-.122,1.903-.26.618-.683,1.081-1.269,1.39-.585.309-1.284.285-2.097-.073-1.074-.488-2.049-.837-2.927-1.049-.879-.211-1.708-.317-2.489-.317-1.463,0-2.52.236-3.171.707-.65.472-.975,1.066-.975,1.781,0,1.138.764,1.854,2.293,2.147l5.122.927c2.114.357,3.724,1.065,4.83,2.122,1.106,1.057,1.658,2.496,1.658,4.317,0,2.505-.975,4.456-2.927,5.854-1.951,1.399-4.52,2.098-7.708,2.098ZM165.354,59.762c-1.203,0-2.122-.35-2.756-1.049-.635-.699-.952-1.683-.952-2.952v-16.684c0-2.699,1.236-4.049,3.708-4.049,1.171,0,2.073.349,2.708,1.049.634.699.951,1.699.951,3v16.684c0,1.269-.309,2.253-.927,2.952-.618.699-1.529,1.049-2.732,1.049ZM136.327,59.811c-2.472,0-3.708-1.253-3.708-3.757v-27.759c0-2.504,1.236-3.756,3.708-3.756,2.439,0,3.659,1.252,3.659,3.756v10.392c.845-1.236,1.935-2.171,3.268-2.805,1.334-.635,2.814-.952,4.44-.952,5.626,0,8.44,3.35,8.44,10.05v11.074c0,2.504-1.236,3.757-3.708,3.757-1.171,0-2.073-.326-2.708-.976-.634-.651-.951-1.577-.951-2.781v-10.733c0-1.658-.309-2.853-.927-3.585-.618-.732-1.528-1.098-2.732-1.098-1.561,0-2.805.488-3.732,1.464-.927.975-1.39,2.276-1.39,3.902v10.05c0,2.504-1.22,3.757-3.659,3.757ZM92.138,59.811c-1.073,0-1.927-.252-2.561-.757-.635-.504-1.147-1.276-1.537-2.317l-9.855-27.71c-.455-1.236-.374-2.293.244-3.171.618-.878,1.675-1.317,3.171-1.317,1.041,0,1.846.244,2.415.732.569.488,1.033,1.252,1.391,2.293l7.025,20.928,7.415-20.88c.358-1.04.829-1.813,1.415-2.317.585-.504,1.349-.756,2.293-.756.91,0,1.642.252,2.195.756.553.504,1.024,1.293,1.415,2.366l7.171,21.222,7.318-21.319c.325-1.009.78-1.765,1.366-2.269.585-.504,1.382-.756,2.39-.756,1.269,0,2.196.439,2.781,1.317.585.878.651,1.935.195,3.171l-9.952,27.759c-.358,1.008-.854,1.764-1.488,2.268-.634.505-1.472.757-2.512.757-1.041,0-1.87-.252-2.488-.757-.618-.504-1.122-1.276-1.513-2.317l-7.122-20.197-7.221,20.246c-.39,1.008-.886,1.764-1.487,2.268-.602.505-1.423.757-2.464.757Z" style="fill:#0d6efd; fill-rule:evenodd; stroke-width:0px;"/><path d="M165.354,31.027c-1.366,0-2.415-.317-3.147-.951-.731-.634-1.097-1.537-1.097-2.707,0-1.204.366-2.123,1.097-2.757.732-.634,1.781-.951,3.147-.951,2.797,0,4.196,1.236,4.196,3.708,0,2.439-1.399,3.658-4.196,3.658Z" style="fill:#0d6efd; stroke-width:0px;"/><path d="M55.893,15.841c-.878.877-2.301.877-3.178,0l-.001-.001c-.877-.878-.877-2.301,0-3.178l3.178-3.178c.877-.877,2.3-.877,3.178,0v.001c.878.878.878,2.301,0,3.178l-3.177,3.178ZM61.147,26.373c-1.241,0-2.247-1.006-2.247-2.247v-.001c0-1.241,1.006-2.247,2.247-2.247h4.494c1.241,0,2.247,1.006,2.247,2.247v.001c0,1.241-1.006,2.247-2.247,2.247h-4.494ZM46.217,6.741c0,1.241-1.006,2.247-2.247,2.247h-.001c-1.241,0-2.248-1.006-2.248-2.247V2.247c0-1.241,1.007-2.247,2.248-2.247h.001c1.241,0,2.247,1.006,2.247,2.247v4.494ZM3.716,77.433c-.622.623-1.559.809-2.372.472-.813-.337-1.344-1.13-1.344-2.011v-33.103l.024-.023c-.006-.133-.011-.266-.014-.399-.006-.238-.01-.477-.01-.716v-13.136c0-3.497,1.39-6.851,3.863-9.324,2.473-2.473,5.827-3.863,9.325-3.863h26.408c7.283,0,13.188,5.904,13.188,13.187v13.852h-.06c-.004.133-.009.266-.014.399l.074.073v12.085c0,7.283-5.905,13.187-13.188,13.187H13.036l-9.32,9.32Z" style="fill:#0d6efd; fill-rule:evenodd; stroke-width:0px;"/><path d="M18.706,54.724c-.793,0-1.422-.192-1.89-.565-.461-.367-.838-.926-1.122-1.683-.001-.003-.002-.005-.003-.007l-6.791-20.48c-.339-.922-.268-1.71.194-2.366.459-.652,1.238-.993,2.349-.993.774,0,1.371.19,1.794.553.415.355.757.909,1.018,1.667,0,.002.001.004.002.006l4.664,15.23,4.909-13.82c.26-.757.607-1.316,1.033-1.683.437-.376,1.006-.569,1.711-.569.684,0,1.232.194,1.648.573.4.365.745.933,1.028,1.71,0,.002.001.003.001.004l4.743,14.035,4.668-15.434c0-.001,0-.003.001-.004.237-.736.574-1.285,1.001-1.653.436-.376,1.027-.57,1.778-.57.952,0,1.644.338,2.083.997.436.654.495,1.441.157,2.362l-6.663,20.467c0,.002-.001.003-.001.005-.261.736-.627,1.285-1.09,1.653-.469.373-1.086.565-1.856.565-.771,0-1.384-.193-1.841-.566-.449-.367-.82-.926-1.103-1.682-.001-.001-.001-.003-.002-.004l-4.721-13.389-4.787,13.423c-.001.002-.002.004-.002.005-.284.732-.647,1.279-1.084,1.645-.446.374-1.054.568-1.826.568Z" style="fill:#fff; fill-rule:evenodd; stroke-width:0px;"/></g></g></svg>

<?xml version="1.0" encoding="UTF-8" standalone="no"?>
<!DOCTYPE svg PUBLIC "-//W3C//DTD SVG 1.1//EN" "http://www.w3.org/Graphics/SVG/1.1/DTD/svg11.dtd">
<svg width="100%" height="100%" viewBox="0 0 224 79" version="1.1" xmlns="http://www.w3.org/2000/svg" xmlns:xlink="http://www.w3.org/1999/xlink" xml:space="preserve" xmlns:serif="http://www.serif.com/" style="fill-rule:evenodd;clip-rule:evenodd;stroke-linejoin:round;stroke-miterlimit:2;">
    <g id="Components">
        <g id="_52258e0f-d8a6-46fa-8aef-f794c37473fe_7">
            <path d="M211.31,54.395C212.871,54.395 214.139,53.826 215.115,52.688C216.09,51.55 216.578,49.777 216.578,47.37C216.578,44.996 216.09,43.248 215.115,42.126C214.139,41.004 212.871,40.443 211.31,40.443C209.716,40.443 208.431,41.004 207.456,42.126C206.48,43.248 205.992,44.996 205.992,47.37C205.992,49.777 206.48,51.55 207.456,52.688C208.431,53.826 209.716,54.395 211.31,54.395ZM202.431,68.592C199.959,68.592 198.723,67.34 198.723,64.835L198.723,38.735C198.723,36.264 199.926,35.028 202.333,35.028C204.772,35.028 205.992,36.264 205.992,38.735L205.992,38.882C206.675,37.678 207.683,36.719 209.017,36.004C210.35,35.288 211.846,34.93 213.505,34.93C215.586,34.93 217.416,35.434 218.993,36.443C220.571,37.451 221.798,38.882 222.676,40.736C223.555,42.59 223.994,44.801 223.994,47.37C223.994,49.939 223.555,52.16 222.676,54.03C221.798,55.9 220.571,57.347 218.993,58.371C217.416,59.396 215.586,59.908 213.505,59.908C211.911,59.908 210.456,59.567 209.139,58.884C207.821,58.201 206.805,57.29 206.09,56.152L206.09,64.835C206.09,67.34 204.87,68.592 202.431,68.592ZM183.892,59.908C182.461,59.908 180.99,59.778 179.477,59.518C177.965,59.258 176.591,58.819 175.355,58.201C174.542,57.778 174.013,57.241 173.769,56.591C173.526,55.94 173.517,55.306 173.745,54.688C173.973,54.07 174.379,53.607 174.965,53.298C175.55,52.989 176.233,52.997 177.014,53.322C178.347,53.875 179.575,54.265 180.697,54.493C181.819,54.721 182.9,54.835 183.941,54.835C185.307,54.835 186.315,54.615 186.966,54.176C187.616,53.737 187.941,53.16 187.941,52.444C187.941,51.306 187.112,50.59 185.453,50.298L180.331,49.371C178.282,49.013 176.721,48.281 175.648,47.175C174.574,46.07 174.038,44.622 174.038,42.833C174.038,41.207 174.493,39.809 175.404,38.638C176.314,37.467 177.567,36.556 179.16,35.906C180.754,35.255 182.591,34.93 184.673,34.93C187.535,34.93 190.072,35.483 192.283,36.589C193.031,36.947 193.495,37.451 193.674,38.101C193.853,38.752 193.812,39.386 193.552,40.004C193.292,40.622 192.869,41.085 192.283,41.394C191.698,41.703 190.999,41.679 190.186,41.321C189.112,40.833 188.137,40.484 187.259,40.272C186.38,40.061 185.551,39.955 184.77,39.955C183.307,39.955 182.25,40.191 181.599,40.662C180.949,41.134 180.624,41.728 180.624,42.443C180.624,43.581 181.388,44.297 182.917,44.59L188.039,45.517C190.153,45.874 191.763,46.582 192.869,47.639C193.975,48.696 194.527,50.135 194.527,51.956C194.527,54.461 193.552,56.412 191.6,57.81C189.649,59.209 187.08,59.908 183.892,59.908ZM165.354,59.762C164.151,59.762 163.232,59.412 162.598,58.713C161.963,58.014 161.646,57.03 161.646,55.761L161.646,39.077C161.646,36.378 162.882,35.028 165.354,35.028C166.525,35.028 167.427,35.377 168.062,36.077C168.696,36.776 169.013,37.776 169.013,39.077L169.013,55.761C169.013,57.03 168.704,58.014 168.086,58.713C167.468,59.412 166.557,59.762 165.354,59.762ZM136.327,59.811C133.855,59.811 132.619,58.558 132.619,56.054L132.619,28.295C132.619,25.791 133.855,24.539 136.327,24.539C138.766,24.539 139.986,25.791 139.986,28.295L139.986,38.687C140.831,37.451 141.921,36.516 143.254,35.882C144.588,35.247 146.068,34.93 147.694,34.93C153.32,34.93 156.134,38.28 156.134,44.98L156.134,56.054C156.134,58.558 154.898,59.811 152.426,59.811C151.255,59.811 150.353,59.485 149.718,58.835C149.084,58.184 148.767,57.258 148.767,56.054L148.767,45.321C148.767,43.663 148.458,42.468 147.84,41.736C147.222,41.004 146.312,40.638 145.108,40.638C143.547,40.638 142.303,41.126 141.376,42.102C140.449,43.077 139.986,44.378 139.986,46.004L139.986,56.054C139.986,58.558 138.766,59.811 136.327,59.811ZM92.138,59.811C91.065,59.811 90.211,59.559 89.577,59.054C88.942,58.55 88.43,57.778 88.04,56.737L78.185,29.027C77.73,27.791 77.811,26.734 78.429,25.856C79.047,24.978 80.104,24.539 81.6,24.539C82.641,24.539 83.446,24.783 84.015,25.271C84.584,25.759 85.048,26.523 85.406,27.564L92.431,48.492L99.846,27.612C100.204,26.572 100.675,25.799 101.261,25.295C101.846,24.791 102.61,24.539 103.554,24.539C104.464,24.539 105.196,24.791 105.749,25.295C106.302,25.799 106.773,26.588 107.164,27.661L114.335,48.883L121.653,27.564C121.978,26.555 122.433,25.799 123.019,25.295C123.604,24.791 124.401,24.539 125.409,24.539C126.678,24.539 127.605,24.978 128.19,25.856C128.775,26.734 128.841,27.791 128.385,29.027L118.433,56.786C118.075,57.794 117.579,58.55 116.945,59.054C116.311,59.559 115.473,59.811 114.433,59.811C113.392,59.811 112.563,59.559 111.945,59.054C111.327,58.55 110.823,57.778 110.432,56.737L103.31,36.54L96.089,56.786C95.699,57.794 95.203,58.55 94.602,59.054C94,59.559 93.179,59.811 92.138,59.811Z" style="fill:white;"/>
            <path d="M165.354,31.027C163.988,31.027 162.939,30.71 162.207,30.076C161.476,29.442 161.11,28.539 161.11,27.369C161.11,26.165 161.476,25.246 162.207,24.612C162.939,23.978 163.988,23.661 165.354,23.661C168.151,23.661 169.55,24.897 169.55,27.369C169.55,29.808 168.151,31.027 165.354,31.027Z" style="fill:rgb(13,110,253);fill-rule:nonzero;"/>
            <path d="M55.893,15.841C55.015,16.718 53.592,16.718 52.715,15.841L52.714,15.84C51.837,14.962 51.837,13.539 52.714,12.662L55.892,9.484C56.769,8.607 58.192,8.607 59.07,9.484L59.07,9.485C59.948,10.363 59.948,11.786 59.07,12.663L55.893,15.841ZM61.147,26.373C59.906,26.373 58.9,25.367 58.9,24.126L58.9,24.125C58.9,22.884 59.906,21.878 61.147,21.878L65.641,21.878C66.882,21.878 67.888,22.884 67.888,24.125L67.888,24.126C67.888,25.367 66.882,26.373 65.641,26.373L61.147,26.373ZM46.217,6.741C46.217,7.982 45.211,8.988 43.97,8.988L43.969,8.988C42.728,8.988 41.721,7.982 41.721,6.741L41.721,2.247C41.721,1.006 42.728,0 43.969,0L43.97,0C45.211,0 46.217,1.006 46.217,2.247L46.217,6.741ZM3.716,77.433C3.094,78.056 2.157,78.242 1.344,77.905C0.531,77.568 0,76.775 0,75.894L0,42.791L0.024,42.768C0.018,42.635 0.013,42.502 0.01,42.369C0.004,42.131 0,41.892 0,41.653L0,28.517C0,25.02 1.39,21.666 3.863,19.193C6.336,16.72 9.69,15.33 13.188,15.33L39.596,15.33C46.879,15.33 52.784,21.234 52.784,28.517L52.784,42.369L52.724,42.369C52.72,42.502 52.715,42.635 52.71,42.768L52.784,42.841L52.784,54.926C52.784,62.209 46.879,68.113 39.596,68.113L13.036,68.113L3.716,77.433Z" style="fill:rgb(13,110,253);"/>
            <path d="M18.706,54.724C17.913,54.724 17.284,54.532 16.816,54.159C16.355,53.792 15.978,53.233 15.694,52.476C15.693,52.473 15.692,52.471 15.691,52.469L8.9,31.989C8.561,31.067 8.632,30.279 9.094,29.623C9.553,28.971 10.332,28.63 11.443,28.63C12.217,28.63 12.814,28.82 13.237,29.183C13.652,29.538 13.994,30.092 14.255,30.85C14.255,30.852 14.256,30.854 14.257,30.856L18.921,46.086L23.83,32.266C24.09,31.509 24.437,30.95 24.863,30.583C25.3,30.207 25.869,30.014 26.574,30.014C27.258,30.014 27.806,30.208 28.222,30.587C28.622,30.952 28.967,31.52 29.25,32.297C29.25,32.299 29.251,32.3 29.251,32.301L33.994,46.336L38.662,30.902C38.662,30.901 38.662,30.899 38.663,30.898C38.9,30.162 39.237,29.613 39.664,29.245C40.1,28.869 40.691,28.675 41.442,28.675C42.394,28.675 43.086,29.013 43.525,29.672C43.961,30.326 44.02,31.113 43.682,32.034L37.019,52.501C37.019,52.503 37.018,52.504 37.018,52.506C36.757,53.242 36.391,53.791 35.928,54.159C35.459,54.532 34.842,54.724 34.072,54.724C33.301,54.724 32.688,54.531 32.231,54.158C31.782,53.791 31.411,53.232 31.128,52.476C31.127,52.475 31.127,52.473 31.126,52.472L26.405,39.083L21.618,52.506C21.617,52.508 21.616,52.51 21.616,52.511C21.332,53.243 20.969,53.79 20.532,54.156C20.086,54.53 19.478,54.724 18.706,54.724Z" style="fill:white;"/>
        </g>
    </g>
</svg>
